icons/action/icon_sign_m_black.svg

<svg width="24" height="24" viewBox="0 0 24 24" xmlns="http://www.w3.org/2000/svg">
  <g fill="none" fill-rule="evenodd">
    <path d="M0 0h24v24H0"/>
    <path d="M13.4 24h.283l.145-.242 5.6-9.3c.392-.634.482-1.41.246-2.116l-2.7-8.002L16.86 4H12v1h4.5l-.474-.34 2.7 8c.144.433.086.882-.155 1.283l-5.6 9.3.43-.243H12v1h1.4zM12 23h-1.4l.428.242-5.6-9.3c-.24-.4-.298-.85-.154-1.284l2.7-7.998L7.5 5H12V4H7.14l-.114.34-2.7 8c-.24.72-.142 1.472.245 2.117l5.6 9.3.147.243H12v-1z" fill="#0B1F35" fill-rule="nonzero"/>
    <g opacity=".3" transform="translate(10 11)" fill-rule="nonzero" fill="#0B1F35">
      <path d="M1 2h2v10.5H1"/>
      <circle cx="2" cy="2" r="2"/>
    </g>
    <path fill="#0B1F35" fill-rule="nonzero" opacity=".3" d="M6 0h12v2H6"/>
  </g>
</svg>

<?xml version="1.0" encoding="UTF-8"?>
<svg width="24px" height="24px" viewBox="0 0 24 24" version="1.1" xmlns="http://www.w3.org/2000/svg" xmlns:xlink="http://www.w3.org/1999/xlink">
    <!-- Generator: Sketch 47 (45396) - http://www.bohemiancoding.com/sketch -->
    <title>icon_tool-sign_m_black</title>
    <desc>Created with Sketch.</desc>
    <defs></defs>
    <g id="Page-1" stroke="none" stroke-width="1" fill="none" fill-rule="evenodd">
        <g id="icon_tool-sign_m_black">
            <polygon id="Shape" points="0 0 24 0 24 24 0 24"></polygon>
            <path d="M13.4,24 L13.683,24 L13.828,23.758 L19.428,14.458 C19.8195502,13.8239834 19.9096552,13.0489337 19.674,12.342 L16.974,4.34 L16.859,4 L12,4 L12,5 L16.5,5 L16.026,4.66 L18.726,12.66 C18.87,13.093 18.812,13.542 18.571,13.943 L12.971,23.243 L13.4,23 L12,23 L12,24 L13.4,24 Z M12,23 L10.6,23 L11.028,23.242 L5.428,13.942 C5.188,13.542 5.13,13.092 5.274,12.658 L7.974,4.66 L7.5,5 L12,5 L12,4 L7.141,4 L7.026,4.34 L4.326,12.34 C4.086,13.06 4.184,13.812 4.571,14.457 L10.171,23.757 L10.317,24 L12,24 L12,23 Z" id="Shape" fill="#0B1F35" fill-rule="nonzero"></path>
            <g id="Group" opacity="0.3" transform="translate(10.000000, 11.000000)" fill-rule="nonzero" fill="#0B1F35">
                <polygon id="Shape" points="1 2 3 2 3 12.5 1 12.5"></polygon>
                <circle id="Oval" cx="2" cy="2" r="2"></circle>
            </g>
            <polygon id="Shape" fill="#0B1F35" fill-rule="nonzero" opacity="0.3" points="6 0 18 0 18 2 6 2"></polygon>
        </g>
    </g>
</svg>
